X:174
T:O Be Glad All Nations on Earth
%%stretchlast false
M:3/2
L:1/4
K:D clef=C1
"^I"[DAdf]4 "^IV¹"[B,Gdg]2 | "^V¹"[CEea]4/3 [CEeg]2/3 "^I"[DAdf]2 "^V7"[A,Gce]2 | "^vi"[B,FBd]4 "^V"[A,Ace]2 | "^I"[DAdf]4/3 "^V"[DAce]2/3 "^I"[DAdf]4 | "^IV"[G,Bdg]2 "^IVmaj7"[G,Bdf]2 "^ii7¹"[G,Bde]2 | "^I¹"[F,Ada]4/3 [F,Adg]2/3 "^vi"[B,Ddf] [B,Dcf] "^ii¹"[G,GBe]2 | "^I²"[A,FAd]2 [A,EAd]2 "^V"[A,Ac] "^V7"[A,GAc] | "^I"[DFAd]6 | [DAdf]4 "^IV¹"[B,Gdg]2 | "^V¹"[CEea]4/3 [CEeg]2/3 "^I"[DAdf]2 "^V7"[A,Gce]2 | "^vi"[B,FBd]4 "^V"[A,Ace]2 | "^I"[DAdf]4/3 "^V"[DAce]2/3 "^I"[DAdf]4 | "^IV"[G,Bdg]2 "^IVmaj7"[G,Bdf]2 "^ii7¹"[G,Bde]2 | "^I¹"[F,Ada]4/3 [F,Adg]2/3 "^vi"[B,Ddf] [B,Dcf] "^ii¹"[G,GBe]2 | "^I²"[A,FAd]2 [A,EAd]2 "^V"[A,Ac] "^V7"[A,GAc] | "^I"[DFAd]6 | "^I¹"[FAda]4 "^I"[DFda]4/3 [DAdf]2/3 | "^V¹"[CAea]3 "^V7¹"[CGea] "^I"[DFda]2/3 "^vi¹"[DFdb]2/3 "^I"[DFd=c']2/3 | "^IV"[G,Gdb]4/3 "^iv"[G,Ada]2/3 "^IV"[G,Bdg]2 "^♭vø7"[^G,Bdf]2 | "^I²"[A,Adf]2 "^V"[A,Ace]4 | "^iii"[FAca]4 "^I"[DFda]4/3 [DAdf]2/3 | [A,Aea]3 [A,Gea] [DFda]2/3 "^vi¹"[DFdb]2/3 "^I"[DFd=c']2/3 | "^IV"[Gdb]4/3 "^I¹"[FGda]2/3 [EGdg] [EGcg] "^I"[DAdf]2 | "^V"[A,Ace]6 | "^I"[DAdf]4 "^IV¹"[B,Gdg]2 | "^V¹"[CEea]4/3 [CEeg]2/3 "^I"[DAdf]2 "^V7"[A,Gce]2 | "^vi"[B,FBd]4 "^ii¹"[G,B,Be]2 | "^vi²"[F,DBf]4/3 [F,DBe]2/3 "^III"[F,C^Af]4 | "^viiø7¹"[E,CBg]2 "^vi²"[F,DBf]2 "^ii¹"[G,EBe] [G,Ece] | "^I¹"[F,Fda]4/3 "^iv"[F,Gdg]2/3 "^I"[D,Adf] "^Imaj7"[D,Acf] "^ii¹"[G,GBe]2 | "^I²"[A,FAd]2 [A,EAd]2 "^V"[A,Ac] "^V7"[A,GAc] | "^I"[DFAd]6 |]
